X: 1
T: Lochiel's Awa' to France
R: Reel
O: Skye Collection
B: Skye Collection
D: a.k.a. Lochiel's Rant from Buddy MacMaster "Cape Breton Tradition"
S: arr. T. Traub 10-21-2010
M: 4/4
L: 1/8
K: Ador
g | "Am"eA A/A/A e2dc | "G"BG G/G/G Bddg | "Am"eA A/A/A e2 dc | "G"BGAB "Em"gee :|
g | "G"dega bgab | "G"gd d/d/d gddg | "G"dega bgab | "C (Em)"ge e/e/e gee ||
g | "G"dega bgab | "G"gd d/d/d gddg | "G"bgae deg[dB] | "A"BA A/A/A "Em"gee |]
